src/icons/svg/sitemsg.svg

<?xml version="1.0" encoding="UTF-8"?>
<svg width="40px" height="28px" viewBox="0 0 40 28" version="1.1" xmlns="http://www.w3.org/2000/svg"
>
    <path d="M39.909982,26.6833367 L27.4374875,12.7905581 L39.8879776,1.23024605 C39.9459892,1.39827966 40,1.56831366 40,1.75035007 L40,26.2572515 C40,26.4092819 39.9479896,26.5433087 39.909982,26.6833367 Z M1.52630526,0.0640128026 C1.64032807,0.0440088018 1.74034807,-1.11044511e-15 1.85437087,-1.11044511e-15 L38.1496299,-1.11044511e-15 C38.2636527,-1.11044511e-15 38.3656731,0.0440088018 38.4776955,0.0640128026 L20.0020004,16.3652731 L1.52630526,0.0640128026 Z M0.0920184037,26.6853371 C0.0560112022,26.5453091 4.40816346e-16,26.4112823 4.40816346e-16,26.2572515 L4.40816346e-16,1.75035007 C4.40816346e-16,1.56431286 0.0580116023,1.39627926 0.114022805,1.22824565 L12.5705141,12.7905581 L0.0920184037,26.6853371 Z M19.4078816,18.1776355 C19.579916,18.3156631 19.7919584,18.3816763 20.0020004,18.3816763 C20.2140428,18.3816763 20.4220844,18.3156631 20.5921184,18.1776355 L26.0072014,13.9167834 L38.6017203,27.9215843 C38.4536907,27.9575915 38.3096619,28.0096019 38.1496299,28.0096019 L1.85437087,28.0096019 C1.69633927,28.0096019 1.55231046,27.9575915 1.40628126,27.9215843 L13.9987998,13.9167834 L19.4078816,18.1776355 Z"
          id="形状"></path>
</svg>

<svg width="40" height="28" xmlns="http://www.w3.org/2000/svg"><path d="M39.91 26.683L27.437 12.791 39.888 1.23c.058.167.112.337.112.52v24.506c0 .152-.052.286-.09.426zM1.526.064C1.64.044 1.74 0 1.854 0H38.15c.114 0 .216.044.328.064L20.002 16.365 1.526.064zM.092 26.685c-.036-.14-.092-.274-.092-.428V1.75c0-.186.058-.354.114-.522l12.457 11.563L.092 26.685zm19.316-8.507a.947.947 0 0 0 .594.204c.212 0 .42-.066.59-.204l5.415-4.261 12.595 14.005c-.148.036-.292.088-.452.088H1.854c-.158 0-.302-.052-.448-.088L14 13.917l5.409 4.26z"/></svg>
